X:176
M:2/4
L:1/8
K:D
|:e|ff/a/ eA/g/|ff/a/ eA/g/|fe/d/ fe/d/|e2 Ae|ff/a/ eA/g/|fe/d/ ed/c/|d2 D:|

